X:28
T:Robin's Waltz
Z:robin.beech@mcgill.ca
R:waltz
M:3/4
L:1/8
K:G
B2 AGAB | c4AG | F2G3A | B4GF |
E2F3G | A4G2 | F2d3c | B2G2F2 :|
B6 | A2d3c | Bc BA GE | (3FGA BA GF |
ECC ACG | F2EFGF | EB AG FE | Fd dc d2 |
B3 | A2d3c | B3 | A2G3F |
G2G3G | F2E3D | E3 B,EG | B3 |]
